X: 04085
T: The SNEEZY POLKA
C: Bob McQuillen 7 May 79
B: Bob's Note Book 04 #85
R: polka
Z: 2020 John Chambers <jc:trillian.mit.edu>
M: C
L: 1/8
K: D
AB \
| A2FF F2AB | A2FF F2AB | A2FF FEDE | F2E2 E2AB |\
| A2FF F2AB | A2FF F2AB | ABAF EFDE | F2D2 D2 :|
|: AA \
| f2f2 e2fe | d2BB B2Bc | d2A2 ABAG | F2E2 E2AA |\
| f2f2 e2fe | d2BB B3c | d2A2 ABAG | F2D2 D2 :|
%%begintext align
%% I know it's a dumb name,
%% but I really sneezed my
%% head off when I wrote this
%% tune!!
%%endtext

%%sep 1 1 500

%%sep 1 1 500

